bernoullicharts/cos_x__mean.svg

<?xml version="1.0" encoding="utf-8" standalone="no"?>
<!DOCTYPE svg PUBLIC "-//W3C//DTD SVG 1.1//EN"
  "http://www.w3.org/Graphics/SVG/1.1/DTD/svg11.dtd">
<!-- Created with matplotlib (https://matplotlib.org/) -->
<svg height="345.6pt" version="1.1" viewBox="0 0 460.8 345.6" width="460.8pt" xmlns="http://www.w3.org/2000/svg" xmlns:xlink="http://www.w3.org/1999/xlink">
 <defs>
  <style type="text/css">
*{stroke-linecap:butt;stroke-linejoin:round;}
  </style>
 </defs>
 <g id="figure_1">
  <g id="patch_1">
   <path d="M 0 345.6 
L 460.8 345.6 
L 460.8 0 
L 0 0 
z
" style="fill:#ffffff;"/>
  </g>
  <g id="axes_1">
   <g id="patch_2">
    <path d="M 57.6 307.584 
L 414.72 307.584 
L 414.72 41.472 
L 57.6 41.472 
z
" style="fill:#ffffff;"/>
   </g>
   <g id="matplotlib.axis_1">
    <g id="xtick_1">
     <g id="line2d_1">
      <defs>
       <path d="M 0 0 
L 0 3.5 
" id="m76faf86de1" style="stroke:#000000;stroke-width:0.8;"/>
      </defs>
      <g>
       <use style="stroke:#000000;stroke-width:0.8;" x="73.800255" xlink:href="#m76faf86de1" y="307.584"/>
      </g>
     </g>
     <g id="text_1">
      <text style="font-family:DejaVu Sans;font-size:10px;font-style:normal;font-weight:normal;text-anchor:middle;" transform="rotate(-0, 73.800255, 322.182437)" x="73.800255" y="322.182437">0.0</text>
     </g>
    </g>
    <g id="xtick_2">
     <g id="line2d_2">
      <g>
       <use style="stroke:#000000;stroke-width:0.8;" x="138.744153" xlink:href="#m76faf86de1" y="307.584"/>
      </g>
     </g>
     <g id="text_2">
      <text style="font-family:DejaVu Sans;font-size:10px;font-style:normal;font-weight:normal;text-anchor:middle;" transform="rotate(-0, 138.744153, 322.182437)" x="138.744153" y="322.182437">0.2</text>
     </g>
    </g>
    <g id="xtick_3">
     <g id="line2d_3">
      <g>
       <use style="stroke:#000000;stroke-width:0.8;" x="203.688051" xlink:href="#m76faf86de1" y="307.584"/>
      </g>
     </g>
     <g id="text_3">
      <text style="font-family:DejaVu Sans;font-size:10px;font-style:normal;font-weight:normal;text-anchor:middle;" transform="rotate(-0, 203.688051, 322.182437)" x="203.688051" y="322.182437">0.4</text>
     </g>
    </g>
    <g id="xtick_4">
     <g id="line2d_4">
      <g>
       <use style="stroke:#000000;stroke-width:0.8;" x="268.631949" xlink:href="#m76faf86de1" y="307.584"/>
      </g>
     </g>
     <g id="text_4">
      <text style="font-family:DejaVu Sans;font-size:10px;font-style:normal;font-weight:normal;text-anchor:middle;" transform="rotate(-0, 268.631949, 322.182437)" x="268.631949" y="322.182437">0.6</text>
     </g>
    </g>
    <g id="xtick_5">
     <g id="line2d_5">
      <g>
       <use style="stroke:#000000;stroke-width:0.8;" x="333.575847" xlink:href="#m76faf86de1" y="307.584"/>
      </g>
     </g>
     <g id="text_5">
      <text style="font-family:DejaVu Sans;font-size:10px;font-style:normal;font-weight:normal;text-anchor:middle;" transform="rotate(-0, 333.575847, 322.182437)" x="333.575847" y="322.182437">0.8</text>
     </g>
    </g>
    <g id="xtick_6">
     <g id="line2d_6">
      <g>
       <use style="stroke:#000000;stroke-width:0.8;" x="398.519745" xlink:href="#m76faf86de1" y="307.584"/>
      </g>
     </g>
     <g id="text_6">
      <text style="font-family:DejaVu Sans;font-size:10px;font-style:normal;font-weight:normal;text-anchor:middle;" transform="rotate(-0, 398.519745, 322.182437)" x="398.519745" y="322.182437">1.0</text>
     </g>
    </g>
    <g id="text_7">
     <text style="font-family:DejaVu Sans;font-size:10px;font-style:normal;font-weight:normal;text-anchor:middle;" transform="rotate(-0, 236.16, 335.860562)" x="236.16" y="335.860562">Input Coin's Heads Probability (λ)</text>
    </g>
   </g>
   <g id="matplotlib.axis_2">
    <g id="ytick_1">
     <g id="line2d_7">
      <defs>
       <path d="M 0 0 
L -3.5 0 
" id="me79f52689b" style="stroke:#000000;stroke-width:0.8;"/>
      </defs>
      <g>
       <use style="stroke:#000000;stroke-width:0.8;" x="57.6" xlink:href="#me79f52689b" y="294.524175"/>
      </g>
     </g>
     <g id="text_8">
      <text style="font-family:DejaVu Sans;font-size:10px;font-style:normal;font-weight:normal;text-anchor:end;" transform="rotate(-0, 50.6, 298.323394)" x="50.6" y="298.323394">0.5</text>
     </g>
    </g>
    <g id="ytick_2">
     <g id="line2d_8">
      <g>
       <use style="stroke:#000000;stroke-width:0.8;" x="57.6" xlink:href="#me79f52689b" y="246.33294"/>
      </g>
     </g>
     <g id="text_9">
      <text style="font-family:DejaVu Sans;font-size:10px;font-style:normal;font-weight:normal;text-anchor:end;" transform="rotate(-0, 50.6, 250.132159)" x="50.6" y="250.132159">0.6</text>
     </g>
    </g>
    <g id="ytick_3">
     <g id="line2d_9">
      <g>
       <use style="stroke:#000000;stroke-width:0.8;" x="57.6" xlink:href="#me79f52689b" y="198.141705"/>
      </g>
     </g>
     <g id="text_10">
      <text style="font-family:DejaVu Sans;font-size:10px;font-style:normal;font-weight:normal;text-anchor:end;" transform="rotate(-0, 50.6, 201.940924)" x="50.6" y="201.940924">0.7</text>
     </g>
    </g>
    <g id="ytick_4">
     <g id="line2d_10">
      <g>
       <use style="stroke:#000000;stroke-width:0.8;" x="57.6" xlink:href="#me79f52689b" y="149.95047"/>
      </g>
     </g>
     <g id="text_11">
      <text style="font-family:DejaVu Sans;font-size:10px;font-style:normal;font-weight:normal;text-anchor:end;" transform="rotate(-0, 50.6, 153.749689)" x="50.6" y="153.749689">0.8</text>
     </g>
    </g>
    <g id="ytick_5">
     <g id="line2d_11">
      <g>
       <use style="stroke:#000000;stroke-width:0.8;" x="57.6" xlink:href="#me79f52689b" y="101.759235"/>
      </g>
     </g>
     <g id="text_12">
      <text style="font-family:DejaVu Sans;font-size:10px;font-style:normal;font-weight:normal;text-anchor:end;" transform="rotate(-0, 50.6, 105.558454)" x="50.6" y="105.558454">0.9</text>
     </g>
    </g>
    <g id="ytick_6">
     <g id="line2d_12">
      <g>
       <use style="stroke:#000000;stroke-width:0.8;" x="57.6" xlink:href="#me79f52689b" y="53.568"/>
      </g>
     </g>
     <g id="text_13">
      <text style="font-family:DejaVu Sans;font-size:10px;font-style:normal;font-weight:normal;text-anchor:end;" transform="rotate(-0, 50.6, 57.367219)" x="50.6" y="57.367219">1.0</text>
     </g>
    </g>
    <g id="text_14">
     <text style="font-family:DejaVu Sans;font-size:10px;font-style:normal;font-weight:normal;text-anchor:middle;" transform="rotate(-90, 28.617187, 174.528)" x="28.617187" y="174.528">Simulated Mean / Function Value</text>
    </g>
   </g>
   <g id="line2d_13">
    <path clip-path="url(#p9647464abe)" d="M 73.832727 53.568002 
L 77.112066 53.593064 
L 80.391405 53.667272 
L 83.670744 53.790621 
L 86.950083 53.963096 
L 90.229421 54.18468 
L 93.50876 54.455351 
L 96.788099 54.775081 
L 100.067438 55.143838 
L 103.346777 55.561583 
L 106.626116 56.028275 
L 109.905455 56.543866 
L 113.184793 57.108303 
L 116.464132 57.721528 
L 119.743471 58.383479 
L 123.02281 59.094089 
L 126.302149 59.853285 
L 129.581488 60.66099 
L 132.860826 61.51712 
L 136.140165 62.42159 
L 139.419504 63.374306 
L 142.698843 64.375172 
L 145.978182 65.424085 
L 149.257521 66.520939 
L 152.53686 67.665621 
L 155.816198 68.858015 
L 159.095537 70.097999 
L 162.374876 71.385447 
L 165.654215 72.720227 
L 168.933554 74.102204 
L 172.212893 75.531236 
L 175.492231 77.007178 
L 178.77157 78.529879 
L 182.050909 80.099184 
L 185.330248 81.714932 
L 188.609587 83.376959 
L 191.888926 85.085096 
L 195.168264 86.839168 
L 198.447603 88.638997 
L 201.726942 90.484398 
L 205.006281 92.375184 
L 208.28562 94.311161 
L 211.564959 96.292133 
L 214.844298 98.317897 
L 218.123636 100.388246 
L 221.402975 102.502971 
L 224.682314 104.661854 
L 227.961653 106.864675 
L 231.240992 109.111211 
L 234.520331 111.401231 
L 237.799669 113.734503 
L 241.079008 116.110788 
L 244.358347 118.529844 
L 247.637686 120.991424 
L 250.917025 123.495278 
L 254.196364 126.041149 
L 257.475702 128.628778 
L 260.755041 131.257902 
L 264.03438 133.928252 
L 267.313719 136.639556 
L 270.593058 139.391537 
L 273.872397 142.183914 
L 277.151736 145.016403 
L 280.431074 147.888716 
L 283.710413 150.800558 
L 286.989752 153.751633 
L 290.269091 156.74164 
L 293.54843 159.770275 
L 296.827769 162.837227 
L 300.107107 165.942185 
L 303.386446 169.084832 
L 306.665785 172.264847 
L 309.945124 175.481905 
L 313.224463 178.73568 
L 316.503802 182.025838 
L 319.78314 185.352045 
L 323.062479 188.713961 
L 326.341818 192.111244 
L 329.621157 195.543546 
L 332.900496 199.010517 
L 336.179835 202.511805 
L 339.459174 206.047052 
L 342.738512 209.615898 
L 346.017851 213.217978 
L 349.29719 216.852925 
L 352.576529 220.520368 
L 355.855868 224.219934 
L 359.135207 227.951245 
L 362.414545 231.71392 
L 365.693884 235.507576 
L 368.973223 239.331826 
L 372.252562 243.18628 
L 375.531901 247.070545 
L 378.81124 250.984224 
L 382.090579 254.926918 
L 385.369917 258.898226 
L 388.649256 262.897742 
L 391.928595 266.925058 
L 395.207934 270.979764 
L 398.487273 275.061446 
" style="fill:none;stroke:#1f77b4;stroke-linecap:square;stroke-width:1.5;"/>
   </g>
   <g id="line2d_14">
    <path clip-path="url(#p9647464abe)" d="M 73.832727 53.568 
L 77.112066 53.568 
L 80.391405 53.568 
L 83.670744 54.531825 
L 86.950083 53.568 
L 90.229421 53.568 
L 93.50876 54.531825 
L 96.788099 54.531825 
L 100.067438 54.531825 
L 103.346777 57.423299 
L 106.626116 57.423299 
L 109.905455 58.387124 
L 113.184793 55.495649 
L 116.464132 57.423299 
L 119.743471 57.423299 
L 123.02281 59.350948 
L 126.302149 57.423299 
L 129.581488 60.314773 
L 132.860826 62.242422 
L 136.140165 59.350948 
L 139.419504 62.242422 
L 142.698843 68.025371 
L 145.978182 62.242422 
L 149.257521 72.844494 
L 152.53686 68.025371 
L 155.816198 73.808319 
L 159.095537 71.880669 
L 162.374876 66.097721 
L 165.654215 70.916845 
L 168.933554 81.518916 
L 172.212893 74.772143 
L 175.492231 71.880669 
L 178.77157 81.518916 
L 182.050909 90.193339 
L 185.330248 87.301865 
L 188.609587 81.518916 
L 191.888926 80.555092 
L 195.168264 76.699793 
L 198.447603 75.735968 
L 201.726942 77.663618 
L 205.006281 97.903936 
L 208.28562 103.686884 
L 211.564959 95.012462 
L 214.844298 98.867761 
L 218.123636 112.361307 
L 221.402975 104.650709 
L 224.682314 108.506008 
L 227.961653 103.686884 
L 231.240992 109.469833 
L 234.520331 107.542183 
L 237.799669 116.216606 
L 241.079008 117.18043 
L 244.358347 122.963378 
L 247.637686 116.216606 
L 250.917025 119.10808 
L 254.196364 139.348398 
L 257.475702 125.854853 
L 260.755041 110.433657 
L 264.03438 129.710151 
L 267.313719 135.4931 
L 270.593058 138.384574 
L 273.872397 150.914295 
L 277.151736 164.407841 
L 280.431074 151.87812 
L 283.710413 146.095171 
L 286.989752 151.87812 
L 290.269091 148.022821 
L 293.54843 163.444016 
L 296.827769 161.516367 
L 300.107107 166.33549 
L 303.386446 186.575809 
L 306.665785 175.009912 
L 309.945124 185.611984 
L 313.224463 181.756685 
L 316.503802 193.322582 
L 319.78314 182.72051 
L 323.062479 191.394932 
L 326.341818 198.141705 
L 329.621157 212.599076 
L 332.900496 224.164972 
L 336.179835 201.033179 
L 339.459174 207.779952 
L 342.738512 205.852303 
L 346.017851 200.069355 
L 349.29719 206.816127 
L 352.576529 221.273498 
L 355.855868 227.056446 
L 359.135207 233.803219 
L 362.414545 239.586167 
L 365.693884 234.767044 
L 368.973223 243.441466 
L 372.252562 256.935012 
L 375.531901 252.115888 
L 378.81124 261.754135 
L 382.090579 246.33294 
L 385.369917 250.188239 
L 388.649256 272.356207 
L 391.928595 277.175331 
L 395.207934 295.488 
L 398.487273 276.211506 
" style="fill:none;stroke:#ff7f0e;stroke-linecap:square;stroke-width:1.5;"/>
   </g>
   <g id="patch_3">
    <path d="M 57.6 307.584 
L 57.6 41.472 
" style="fill:none;stroke:#000000;stroke-linecap:square;stroke-linejoin:miter;stroke-width:0.8;"/>
   </g>
   <g id="patch_4">
    <path d="M 414.72 307.584 
L 414.72 41.472 
" style="fill:none;stroke:#000000;stroke-linecap:square;stroke-linejoin:miter;stroke-width:0.8;"/>
   </g>
   <g id="patch_5">
    <path d="M 57.6 307.584 
L 414.72 307.584 
" style="fill:none;stroke:#000000;stroke-linecap:square;stroke-linejoin:miter;stroke-width:0.8;"/>
   </g>
   <g id="patch_6">
    <path d="M 57.6 41.472 
L 414.72 41.472 
" style="fill:none;stroke:#000000;stroke-linecap:square;stroke-linejoin:miter;stroke-width:0.8;"/>
   </g>
   <g id="text_15">
    <text style="font-family:DejaVu Sans;font-size:12px;font-style:normal;font-weight:normal;" transform="translate(125.901562 22.034625)">Simulated Mean for cos(x) Algorithm</text>
    <text style="font-family:DejaVu Sans;font-size:12px;font-style:normal;font-weight:normal;" transform="translate(132.609375 35.472)">(Wasserstein Distances in Legend)</text>
   </g>
   <g id="legend_1">
    <g id="patch_7">
     <path d="M 229.47 78.82825 
L 407.72 78.82825 
Q 409.72 78.82825 409.72 76.82825 
L 409.72 48.472 
Q 409.72 46.472 407.72 46.472 
L 229.47 46.472 
Q 227.47 46.472 227.47 48.472 
L 227.47 76.82825 
Q 227.47 78.82825 229.47 78.82825 
z
" style="fill:#ffffff;opacity:0.8;stroke:#cccccc;stroke-linejoin:miter;"/>
    </g>
    <g id="line2d_15">
     <path d="M 231.47 54.570437 
L 251.47 54.570437 
" style="fill:none;stroke:#1f77b4;stroke-linecap:square;stroke-width:1.5;"/>
    </g>
    <g id="line2d_16"/>
    <g id="text_16">
     <text style="font-family:DejaVu Sans;font-size:10px;font-style:normal;font-weight:normal;text-anchor:start;" transform="rotate(-0, 259.47, 58.070437)" x="259.47" y="58.070437">cos(x)</text>
    </g>
    <g id="line2d_17">
     <path d="M 231.47 69.248562 
L 251.47 69.248562 
" style="fill:none;stroke:#ff7f0e;stroke-linecap:square;stroke-width:1.5;"/>
    </g>
    <g id="line2d_18"/>
    <g id="text_17">
     <text style="font-family:DejaVu Sans;font-size:10px;font-style:normal;font-weight:normal;text-anchor:start;" transform="rotate(-0, 259.47, 72.748562)" x="259.47" y="72.748562">Simul. Mean (WD=0.005421)</text>
    </g>
   </g>
  </g>
 </g>
 <defs>
  <clipPath id="p9647464abe">
   <rect height="266.112" width="357.12" x="57.6" y="41.472"/>
  </clipPath>
 </defs>
</svg>

<svg height="460.8" viewBox="0 0 460.8 345.6" width="614.4" xmlns="http://www.w3.org/2000/svg" xmlns:xlink="http://www.w3.org/1999/xlink"><defs><style>*{stroke-linecap:butt;stroke-linejoin:round}</style></defs><g id="figure_1"><path d="M0 345.6h460.8V0H0z" fill="#fff" id="patch_1"/><g id="axes_1"><path d="M57.6 307.584h357.12V41.472H57.6z" fill="#fff" id="patch_2"/><g id="matplotlib.axis_1"><g id="xtick_1"><g id="line2d_1"><defs><path d="M0 0v3.5" id="m76faf86de1" stroke="#000" stroke-width=".8"/></defs><use x="73.8" xlink:href="#m76faf86de1" y="307.584" stroke="#000" stroke-width=".8"/></g><text x="73.8" y="322.182" font-family="DejaVu Sans" font-size="10" font-weight="400" text-anchor="middle" id="text_1">0.0</text></g><g id="xtick_2"><use x="138.744" xlink:href="#m76faf86de1" y="307.584" stroke="#000" stroke-width=".8" id="line2d_2"/><text x="138.744" y="322.182" font-family="DejaVu Sans" font-size="10" font-weight="400" text-anchor="middle" id="text_2">0.2</text></g><g id="xtick_3"><use x="203.688" xlink:href="#m76faf86de1" y="307.584" stroke="#000" stroke-width=".8" id="line2d_3"/><text x="203.688" y="322.182" font-family="DejaVu Sans" font-size="10" font-weight="400" text-anchor="middle" id="text_3">0.4</text></g><g id="xtick_4"><use x="268.632" xlink:href="#m76faf86de1" y="307.584" stroke="#000" stroke-width=".8" id="line2d_4"/><text x="268.632" y="322.182" font-family="DejaVu Sans" font-size="10" font-weight="400" text-anchor="middle" id="text_4">0.6</text></g><g id="xtick_5"><use x="333.576" xlink:href="#m76faf86de1" y="307.584" stroke="#000" stroke-width=".8" id="line2d_5"/><text x="333.576" y="322.182" font-family="DejaVu Sans" font-size="10" font-weight="400" text-anchor="middle" id="text_5">0.8</text></g><g id="xtick_6"><use x="398.52" xlink:href="#m76faf86de1" y="307.584" stroke="#000" stroke-width=".8" id="line2d_6"/><text x="398.52" y="322.182" font-family="DejaVu Sans" font-size="10" font-weight="400" text-anchor="middle" id="text_6">1.0</text></g><text x="236.16" y="335.861" font-family="DejaVu Sans" font-size="10" font-weight="400" text-anchor="middle" id="text_7">Input Coin&apos;s Heads Probability (λ)</text></g><g id="matplotlib.axis_2"><g id="ytick_1"><g id="line2d_7"><defs><path d="M0 0h-3.5" id="me79f52689b" stroke="#000" stroke-width=".8"/></defs><use x="57.6" xlink:href="#me79f52689b" y="294.524" stroke="#000" stroke-width=".8"/></g><text x="50.6" y="298.323" font-family="DejaVu Sans" font-size="10" font-weight="400" text-anchor="end" id="text_8">0.5</text></g><g id="ytick_2"><use x="57.6" xlink:href="#me79f52689b" y="246.333" stroke="#000" stroke-width=".8" id="line2d_8"/><text x="50.6" y="250.132" font-family="DejaVu Sans" font-size="10" font-weight="400" text-anchor="end" id="text_9">0.6</text></g><g id="ytick_3"><use x="57.6" xlink:href="#me79f52689b" y="198.142" stroke="#000" stroke-width=".8" id="line2d_9"/><text x="50.6" y="201.941" font-family="DejaVu Sans" font-size="10" font-weight="400" text-anchor="end" id="text_10">0.7</text></g><g id="ytick_4"><use x="57.6" xlink:href="#me79f52689b" y="149.95" stroke="#000" stroke-width=".8" id="line2d_10"/><text x="50.6" y="153.75" font-family="DejaVu Sans" font-size="10" font-weight="400" text-anchor="end" id="text_11">0.8</text></g><g id="ytick_5"><use x="57.6" xlink:href="#me79f52689b" y="101.759" stroke="#000" stroke-width=".8" id="line2d_11"/><text x="50.6" y="105.558" font-family="DejaVu Sans" font-size="10" font-weight="400" text-anchor="end" id="text_12">0.9</text></g><g id="ytick_6"><use x="57.6" xlink:href="#me79f52689b" y="53.568" stroke="#000" stroke-width=".8" id="line2d_12"/><text x="50.6" y="57.367" font-family="DejaVu Sans" font-size="10" font-weight="400" text-anchor="end" id="text_13">1.0</text></g><text transform="rotate(-90 28.617 174.528)" x="28.617" y="174.528" font-family="DejaVu Sans" font-size="10" font-weight="400" text-anchor="middle" id="text_14">Simulated Mean / Function Value</text></g><path clip-path="url(#p9647464abe)" d="M73.833 53.568l3.28.025 3.278.074 3.28.124 3.28.172 3.278.222 3.28.27 3.28.32 3.278.369 3.28.418 3.28.466 3.278.516 3.28.564 3.28.614 3.278.661 3.28.711 3.28.76 3.278.807 3.28.856 3.28.905 3.279.952 3.279 1.001 3.28 1.05 3.279 1.096 3.279 1.145 3.28 1.192 3.279 1.24 3.279 1.287 3.28 1.335 3.279 1.382 3.279 1.43 3.28 1.475 3.279 1.523 3.279 1.57 3.28 1.615 3.279 1.662 3.279 1.708 3.28 1.754 3.279 1.8 3.279 1.845 3.28 1.891 3.279 1.936 3.279 1.981 3.28 2.026 3.279 2.07 3.279 2.115 3.28 2.159 3.279 2.203 3.279 2.246 3.28 2.29 3.279 2.334 3.279 2.376 3.28 2.419 3.279 2.461 3.279 2.504 3.28 2.546 3.279 2.588 3.279 2.629 3.28 2.67 3.279 2.712 3.28 2.752 3.278 2.792 3.28 2.832 3.28 2.873 3.278 2.912 3.28 2.95 3.28 2.99 3.278 3.03 3.28 3.066 3.28 3.105 3.278 3.143 3.28 3.18 3.28 3.217 3.278 3.254 3.28 3.29 3.28 3.326 3.278 3.362 3.28 3.397 3.28 3.433 3.278 3.467 3.28 3.5 3.28 3.536 3.279 3.569 3.279 3.602 3.28 3.635 3.279 3.667 3.279 3.7 3.28 3.731 3.279 3.763 3.279 3.794 3.28 3.824 3.279 3.854 3.279 3.885 3.28 3.913 3.279 3.943 3.279 3.971 3.28 4 3.279 4.027 3.279 4.055 3.28 4.081" fill="none" stroke="#1f77b4" stroke-linecap="square" stroke-width="1.5" id="line2d_13"/><path clip-path="url(#p9647464abe)" d="M73.833 53.568h6.558l3.28.964 3.28-.964h3.278l3.28.964h6.558l3.28 2.891h3.28l3.278.964 3.28-2.891 3.28 1.927h3.278l3.28 1.928 3.28-1.928 3.278 2.892 3.28 1.927 3.28-2.891 3.279 2.891 3.279 5.783 3.28-5.783 3.279 10.602 3.279-4.819 3.28 5.783 3.279-1.927 3.279-5.783 3.28 4.819 3.279 10.602 3.279-6.747 3.28-2.891 3.279 9.638 3.279 8.674 3.28-2.891 3.279-5.783 3.279-.964 3.28-3.855 3.279-.964 3.279 1.928 3.28 20.24 3.279 5.783 3.279-8.675 3.28 3.856 3.279 13.493 3.279-7.71 3.28 3.855 3.279-4.82 3.279 5.784 3.28-1.928 3.279 8.675 3.279.963 3.28 5.783 3.279-6.746 3.279 2.891 3.28 20.24 3.279-13.493 3.279-15.421 3.28 19.276 3.279 5.783 3.28 2.892 3.278 12.53 3.28 13.493 3.28-12.53 3.278-5.783 3.28 5.783 3.28-3.855 3.278 15.421 3.28-1.928 3.28 4.82 3.278 20.24 3.28-11.566 3.28 10.602 3.278-3.855 3.28 11.566 3.28-10.602 3.278 8.674 3.28 6.747 3.28 14.457 3.278 11.566 3.28-23.132 3.28 6.747 3.279-1.928 3.279-5.783 3.28 6.747 3.279 14.457 3.279 5.783 3.28 6.747 3.279 5.783 3.279-4.819 3.28 8.674 3.279 13.494 3.279-4.82 3.28 9.64 3.279-15.422 3.279 3.855 3.28 22.168 3.279 4.82 3.279 18.312 3.28-19.276" fill="none" stroke="#ff7f0e" stroke-linecap="square" stroke-width="1.5" id="line2d_14"/><path d="M57.6 307.584V41.472" fill="none" stroke="#000" stroke-linecap="square" stroke-width=".8" id="patch_3"/><path d="M414.72 307.584V41.472" fill="none" stroke="#000" stroke-linecap="square" stroke-width=".8" id="patch_4"/><path d="M57.6 307.584h357.12" fill="none" stroke="#000" stroke-linecap="square" stroke-width=".8" id="patch_5"/><path d="M57.6 41.472h357.12" fill="none" stroke="#000" stroke-linecap="square" stroke-width=".8" id="patch_6"/><g id="text_15" font-family="DejaVu Sans" font-size="12" font-weight="400"><text transform="translate(125.902 22.035)">Simulated Mean for cos(x) Algorithm</text><text transform="translate(132.61 35.472)">(Wasserstein Distances in Legend)</text></g><g id="legend_1"><path d="M229.47 78.828h178.25q2 0 2-2V48.472q0-2-2-2H229.47q-2 0-2 2v28.356q0 2 2 2z" fill="#fff" opacity=".8" stroke="#ccc" id="patch_7"/><path d="M231.47 54.57h20" fill="none" stroke="#1f77b4" stroke-linecap="square" stroke-width="1.5" id="line2d_15"/><text x="259.47" y="58.07" font-family="DejaVu Sans" font-size="10" font-weight="400" id="text_16">cos(x)</text><path d="M231.47 69.249h20" fill="none" stroke="#ff7f0e" stroke-linecap="square" stroke-width="1.5" id="line2d_17"/><text x="259.47" y="72.749" font-family="DejaVu Sans" font-size="10" font-weight="400" id="text_17">Simul. Mean (WD=0.005421)</text></g></g></g><defs><clipPath id="p9647464abe"><path d="M57.6 41.472h357.12v266.112H57.6z"/></clipPath></defs></svg>
